X:207
T:Yellow Wattle, The
R:jig
H:See also #110
Z:id:hn-jig-207
M:6/8
K:Dmix
dcA AGE|~A3 AB^c|d=cA AB^c|d=cA GED|
dcA AGE|ABA AGE|~D3 cde|dcA GED:|
|:ded ~c3|~d3 ~c3|~d3 cde|dcA GED|
ded ~c3|~d3 d2c|ABA AB^c|d=cA GED:|

